!!!!SEGMENT: T516_Mau-w13p9m20-28.krn
!!!COM: Martinů, Bohuslav (Jan)
!!!OTL: III: [Tempo di Charleston]
!!!AGN: Instrumental
!!!AGN-sub: Keyboard
!!!CNT: Czech
!!!ODT: 1927
!!!OPR: Trois esquisses de danses modernes (Three Sketches of Modern Dances) for Piano
!!!filename: T516_Mau-w13p9m20-28.krn
**kern	**dynam	**kern	**dynam
*grp:A	*	*grp:A	*
*part1	*	*part1	*
*staff2	*	*staff1	*
*ICklav	*	*ICklav	*
*Ipiano	*	*Ipiano	*
*I"Piano	*	*I"Piano	*
*I'Pno.	*	*I'Pno.	*
*clefG2	*	*clefG2	*
*k[]	*	*k[]	*
*C:	*	*C:	*
*M4/4	*	*M4/4	*
*met(c)	*	*met(c)	*
=20	=20	=20	=20
*	*	*8va	*
!	!	!LO:TX:t=[[quarter]=227]	!
!	!	!	!LO:DY:ed=brack
4ryy	.	(>/8ggL 8bb 8ddd	f
.	.	8ddJ	.
4ryy	.	8aa#X<L 8ddd#<X 8fff#X<	.
.	.	\8aaZJ 8ccc 8eee	.
4ryy	.	\8eeL	.
.	.	8ccc#<J 8fff#X< 8aaa#X<	.
4ryy	.	\8ggL 8bb 8dddny	.
.	.	8ddJ	.
=21	=21	=21	=21
*	*	*	*
4ryy	.	8aa#X<L 8ddd#<X 8fff#<X	.
.	.	\8aaZJ 8ccc 8eee	.
4ryy	.	\8eeL	.
.	.	8ccc#X<J 8fff#X< 8aaa#<X	.
2ryy	.	8dd 8gg 8bb 8dddny)	.
.	.	8r	.
.	.	8ee 8gg 8bb 8eee	.
.	.	8r	.
*	*	*X8va	*
=22	=22	=22	=22
*	*	*^	*
*grp:A	*	*grp:B	*grp:B	*
8f' 8a-X 8cc	.	4.bb-X^	(8ffL	.
8r	.	.	8gg)	.
8f' 8b-X 8dd	.	.	8ee'J	.
8r	.	4.bb-^	(8ffL	.
8f' 8a- 8cc	.	.	8gg)	.
8r	.	.	8ee'J	.
8f' 8b- 8dd	.	[4bb-^	(8ffL	<
8r	.	.	8gg')	.
!!linebreak:original
=23	=23	=23	=23	=23
8f' 8a-X 8cc	.	8bb-X^]	8ee'J	.
8r	.	4.bb-X^	(8ffL	.
8f' 8b-X 8dd	.	.	8gg')	.
8r	.	.	8ee'J	.
8f' 8a- 8cc	.	8ryy	/8ff 8bb-^>	[
!	!LO:DY:a	!	!	!
8r	.	8r	8ryy	ff
8B-X^> 8b-	sfz	8bb-^ 8bbb-X	4ryy	sfz
8r	.	8r	.	.
=24	=24	=24	=24	=24
!	!	!	!	!LO:DY:t=poco %s
8f#X' 8an 8cc#X	.	4.bbn^	(8ff#XL	f
8r	.	.	8gg#X)	.
8f#' 8b 8dd#X	.	.	8ee#X'J	.
8r	.	4.bb^	(8ff#L	.
8f#' 8a 8cc#	.	.	8gg#)	<
8r	.	.	8ee#'J	.
8f#' 8b 8dd#	.	[4bb^	(8ff#L	.
8r	.	.	8gg#)	.
=25	=25	=25	=25	=25
8f#X' 8a 8cc#X	.	8bb]	8ee#X'J	.
8r	.	4.bb^	(8ff#XL	.
8f#' 8b 8dd#X	.	.	8gg#X)	.
8r	.	.	8ee#'J	.
8f#' 8a 8cc#	.	/8ff#^> 8bb	2ryy	[
8r	.	8r	.	.
8f#' 8b 8dd#	.	8bbb'L	.	f
8r	.	8ggg#X'J	.	.
*	*	*v	*v	*
!!linebreak:original
=26	=26	=26	=26
*M2/4	*	*M2/4	*
8f#X 8a 8cc#X	.	8ddd#XL	.
8r	.	8bbJ	<
4r	.	8gg#XL	.
.	.	8ff#XJ	[
=27	=27	=27	=27
*M4/4	*	*M4/4	*
*met(c)	*	*met(c)	*
*	*	*8va	*
*	*	*^	*
8f#X 8a 8dd	.	4.ddd^	(8abL	f
8r	.	.	8bb')	<
8e 8g 8cc 8dd	.	.	8gg'J	.
8r	.	4.ddd^	(8aaL	.
8f# 8a 8dd	.	.	8bb')	.
8r	.	.	8gg'J	.
8e 8g 8cc 8dd	.	[4ddd^	(\8aaL	.
8r	.	.	8bb')	[
=28	=28	=28	=28	=28
8f#X 8a 8dd	.	8ddd]	8gg'J	.
8r	.	4.ddd^	(8aaL	.
8e 8g 8cc 8dd	.	.	8bb)	.
8r	.	.	8gg'J	.
8f# 8a 8dd	.	/8aa 8ddd	2ryy	.
!	!LO:DY:a	!	!	!
8r	ff	8raa	.	.
.	.	(<8qcccc#X/	.	sfz
4r	.	8ddd'^ 8dddd)	.	.
*	*	*X8va	*	*
.	.	8r	.	.
*	*	*v	*v	*
=	=	=	=
*-	*-	*-	*-
!!!system-decoration: [({(s1,s2)})]
!!!RDF**kern: > = above
!!!RDF**kern: < = below
!!!RDF**kern: i = editorial accidental
!!!RDF**kern: j = editorial accidental, bracket
!!!RDF**kern: Z = editorial accidental, parentheses
!!!EED: Daniel Wright
!!!EEV: 2021/08/13
!!!EED2: Jason Lee
!!!EEV2: 2022/02/09
!!!EED3: Bryan Bell
!!!Suter_Work_ID: Mau-13
!!!Suter_Example_Number: 516
!!!Suter_Example_ID: Mau-13/9/20-28
!!!Premiere_Location: Paris,France
!!!Other_Tsigs: 2/4,4/4
!!!Full_Unit_Duration: 1:16
!!!First_Publication_Year: 1929
!!!First_Public_Performance_Year: 1927
!!!Example_Total_Measures: 9
!!!Example_Timestamp_Duration: 9
!!!Example_Start_Tsig_Type: changing
!!!Example_Start_Tsig_Mean_Beat_Rate: 227
!!!Example_Start_Tsig_Beat_Rate: 227
!!!Example_Start_Tsig_Beat: quarter
!!!Example_Start_Tsig: 4/4
!!!Example_Start_Timestamp: 0:21
!!!Example_Start_Tempo_Expression: [Tempo di Charleston]
!!!Example_Start_Notated_Beat_Rate: {227}
!!!Example_Start_Notated_Beat: {quarter}
!!!Example_Start_Measure: 20
!!!Example_Metadata_Validated: Y
!!!Example_End_Timestamp: 0:30
!!!Example_End_Measure: 28
!!!Example_Dataset: T
!!!Editorial_Comments: No notated tempo. Example Start Notated Beat and Example Start Notated Beat Rate {quarter=227} calculated from recording (https://ubc-naxosmusiclibrary-com.eu1.proxy.openathens.net/catalogue/item.asp?cid=8.557914); tempo for audio synthesis {quarter=218} was calculated using a Digital Audio Workstation (DAW). Editorial note: The Full Unit Start Tempo Expression (Tempo di Charleston) is derived from Naxos album's divisions.
!!!Death_Place: Liestal,Switzerland
!!!Death_Date: 28-Aug-1959
!!!Changing_Tsig: yes
!!!Birth_Place: Polička,Bohemia
!!!Birth_Date: 8-Dec-1890
!!!Audio_Example_Quarter_Note_Tempo:
!!!Audio_Example_Duration:
!!!EEV3: 2023/06/01
